icons/4_Outdated/NameSilo v1.svg

<svg width="1024" height="1024" viewBox="0 0 1024 1024" fill="none" xmlns="http://www.w3.org/2000/svg">
<g clip-path="url(#clip0_3_596)">
<path d="M512 1024C794.77 1024 1024 794.77 1024 512C1024 229.23 794.77 0 512 0C229.23 0 0 229.23 0 512C0 794.77 229.23 1024 512 1024Z" fill="#728DBE"/>
<path d="M423.4 343.899C430.8 342.999 441.1 341.799 452.5 340.699V817.799H423.4V343.899ZM505.7 337.299C491.9 337.599 476.5 338.599 462.2 339.899V817.899H522V337.299C521 337.299 519.9 337.199 518.9 337.199H505.7V337.299ZM533.2 817.799H575.2V340.999C562.2 339.699 547.4 338.399 533.2 337.699V817.799ZM584.8 342.099V817.799H601V343.899C596.5 343.399 591 342.699 584.8 342.099ZM512 192.199C451.5 252.799 414 329.099 414 329.099C414 329.099 472.2 320.999 512 320.999C551.8 320.999 610 329.099 610 329.099C610 329.099 576.8 257.099 512 192.199Z" fill="white"/>
</g>
<defs>
<clipPath id="clip0_3_596">
<rect width="1024" height="1024" fill="white"/>
</clipPath>
</defs>
</svg>

<svg xmlns="http://www.w3.org/2000/svg" width="1024" height="1024" fill="none">
   <g clip-path="url(#a)">
      <path fill="#728DBE" d="M512 1024c282.77 0 512-229.23 512-512S794.77 0 512 0 0 229.23 0 512s229.23 512 512 512Z"/>
      <path fill="#fff" d="M423.4 343.899c7.4-.9 17.7-2.1 29.1-3.2v477.1h-29.1v-473.9Zm82.3-6.6c-13.8.3-29.2 1.3-43.5 2.6v478H522v-480.6c-1 0-2.1-.1-3.1-.1h-13.2v.1Zm27.5 480.5h42v-476.8c-13-1.3-27.8-2.6-42-3.3v480.1Zm51.6-475.7v475.7H601v-473.9c-4.5-.5-10-1.2-16.2-1.8Zm-72.8-149.9c-60.5 60.6-98 136.9-98 136.9s58.2-8.1 98-8.1 98 8.1 98 8.1-33.2-72-98-136.9Z"/>
   </g>
   <defs>
      <clipPath id="a">
         <path fill="#fff" d="M0 0h1024v1024H0z"/>
      </clipPath>
   </defs>
</svg>
